icon/ir/remove-link.svg

<svg viewBox="0 0 24 24" stroke-width="1.5" fill="none" xmlns="http://www.w3.org/2000/svg" height="1em" width="1em">
  <path d="M7.14286 16.9953C6.75006 16.9953 6.36756 16.9525 6 16.8715C3.70973 16.3665 2 14.3761 2 11.9977C2 9.284 4.22573 7.07548 7 7.00195" stroke="currentColor" stroke-linecap="round" stroke-linejoin="round"/>
  <path d="M13.3184 9.63429C12.7858 8.73635 11.9737 7.96977 11 7.4989" stroke="currentColor" stroke-linecap="round" stroke-linejoin="round"/>
  <path d="M16.8571 6.99999C17.2499 6.99999 17.6324 7.04278 18 7.12383C20.2903 7.62884 22 9.6192 22 11.9976C22 14.7577 19.6975 16.9952 16.8571 16.9952C16.581 16.9952 15.4776 16.9952 15.1429 16.9952C12.317 16.9952 10 14.4893 10 11.9976C10 11.9976 10 11 10.5 10.5" stroke="currentColor" stroke-linecap="round" stroke-linejoin="round"/>
  <path d="M3 3L21 21" stroke="currentColor" stroke-linecap="round" stroke-linejoin="round"/>
</svg>

<svg width="24" height="24" stroke-width="1.5" fill="none" xmlns="http://www.w3.org/2000/svg"><path d="M7.143 16.995c-.393 0-.775-.043-1.143-.123-2.29-.506-4-2.496-4-4.874 0-2.714 2.226-4.923 5-4.996M13.318 9.634A5.517 5.517 0 0 0 11 7.5" stroke="currentColor" stroke-linecap="round" stroke-linejoin="round"/><path d="M16.857 7c.393 0 .775.043 1.143.124 2.29.505 4 2.495 4 4.874 0 2.76-2.302 4.997-5.143 4.997h-1.714c-2.826 0-5.143-2.506-5.143-4.997 0 0 0-.998.5-1.498M3 3l18 18" stroke="currentColor" stroke-linecap="round" stroke-linejoin="round"/></svg>
